X:0
T:Dalkeith Fair
G:reel
S:Glen's Collection for the Great Highland Bagpipe part 3rd (Eighth Thousand)
N:J. & R. Glen 497 Lawnmarket price 1/6
N:see my Dalkeith site, <http://www.purr.demon.co.uk/dalkeith/Dalkeith.htm>
N:for the full setting with the gracenotes
M:C|
L:1/8
Q:1/2=96
K:AMix
B|GBdB gBdB|GBg>B  AA<AB|GBdB efge|gfg>B  GG<G:|
f|g2dB g2dB|AGAB   AA<AB|g2dB g2dB|AGAB   GGG>f|
  g2dB g2dB|AGAB   AA<Af|efge afge|d<Bg>B GG<G||
f|g2fg afge|d<Bg>B AA<Af|g2fg afge|d<Bg>B GG<Gf|
  g2fg afge|d<Bg>B AA<Aa|geaf gaeg|d<Bg>B GG<G|]


13. Getting It Wrong
=== ================

Every possible kind of confusion about these modes has been perpetrated at
some time or other by people used to the major/minor tonal system: mishearing
pitches, "correcting" them, treating them like the passing chromaticisms of
art music and adding other chromaticisms in a misguided attempt to match,
making arrangements where the harmony was in a different mode entirely,
failing to notice gaps, assuming that all pentatonic tunes are in the same
mode, and wild speculation about their origins.

Donald Fergusson's book "Beyond the Furthest Hebrides" comments on the song
"Eilean Mo Chridhe":

        The melody of this song has become one of the most popular of all
        Hebridean melodies through its use for the English song entitled
        'Westering Home'. The same melody also became very popular through
        its use in much older songs, 'The Muckin' O' Geordie's Byre' and
        the beautiful 'Bonnie Strathyre'. 

        The scale (Hexatonic) makes interesting speculation for the 
        missing note is the 7th or leading note. As written here, the 
        scale is B flat and the 7th note should be A sharp (natural). But 
        the  mood or feel of the music, especially in "Eilean Mo Chridhe" 
        is quite melancholy. Could the missing note be A flat? If it is 
        then the scale is the ancient and popular one of so much Gaelic 
        melody - Mixolydian.

Someone should tell Ferguson that there are six other notes of the
chromatic pitch set missing too.  Perhaps he should get together with
the musical estate of the late Sir Arthur Sullivan and start looking
for the Lost Chord.  Ferguson's mistake is of the same type as the more
familiar one that classifies gapped modes as "major" or "minor" because
the notes they have happen to match those scales; it took the musicology
of the twentieth century to enlarge the range of possible confusions to
include mixolydian as well.

There are two persistent muddles which have almost become folk traditions
in their own right: adapting pipe tunes to the fiddle while ignoring the
tonality essential to the pipes, and the other way round.  A simple rule
of thumb: if a fiddle tune fits the range of the pipes and has a G sharp
in it, chances are it was adapted from the pipes and the fiddler/editor
screwed up.

John Curwen, in his text on the sol-fa system, gives an interesting example
of folk intuition fighting back against the "common practice" tonal system.
This old psalm tune dates from the earliest days of the Reformation and was
one of the most widely sung in Scotland:

